!!!SOCIAL_FUNCTION:	war songs
!!!PDT:	1943
!!!OTL: No_32_Song_Concerning_a_Ransomed_Captive.krn
!!!REG: British Columbia
**kern
*staff1
=1-
*clefF4
*k[b-]
*M2/4
4r
8.r
16C/
=2!|:
8.C/L
16C/Jk
8.C/L
16C/Jk
=3||
*M3/4
4..G\
16G\
8G\
16r
16G\
=4||
*M2/4
8.A\L
16A\Jk
8.G\L
16G\Jk
=5
8.G\L
16G\Jk
8.F\L
16D\Jk
=6
12C/L
12C/
12C/J
[4C/
=7||
*M3/4
4C/]
8D/L
16.C/L
32BB-/JJk
8BB-/
8r
=8||
*M2/4
4C/
8.BB-/L
16BB-/Jk
=9||
*M3/4
4BB-/
8.C/L
16C/Jk
8C/
16r
16C/
=10:|!
=
*M2/4
4BB-/
8.C/L
16C/Jk
=11
8C/
4.r
==
*-
